!!!ONB: MCCC : IJH0425_01 : Extracted Monophonic Melody
!!!COM: Haydn, Joseph
!!!OPR: String Quartet in D major
!!!OMV: 1
!!!SCT: Hob.III:3 ; Op.1 No.3
!!!ODT: 1757///
**kern
*thru
*k[f#c#]
*D:
*clefF
*M3/4
2.aa
=1
2.aa[
=2
4.aa]
16gg
16ff#
16ee
16dd
16cc#
16dd
=3
4b
4a
8.r
16dd
=4
4b
8a
16dd
16cc#
16ff#
16dd
16cc#
16dd
=5
4g
4f#
8r
8dd
=6
4e[
8e]
16g
16f#
8g
16f#
16e
=7
8.f#
16e
4d
4r
=8
2.r
=9
2.r
=10
2.r
=11
2.r
=12
2.r
=13
2.r
=14
4ee[
16ee]
16aa
16gg#
16bb
16aa
16ccc#
16cc#
16ee
=15
8.dd
16cc#
2dd[
=16
4dd]
16dd
16gg#
16gg#
16bb
16bb
16gg#
16ee
16dd
=17
8.cc#
16b
2cc#
=18
4cc#[
16cc#]
16b
16dd
16cc#]
8ff#
8a
=19
4g#
4..gg#
32aa
32bb
=20
4aa
4..aa
32bb
32ccc#
=21
4bb
4..bb
32ccc#
32ddd
=22
8ccc#
8eee
16eee
16ccc#
16ccc#
16aa
16ee
16ddd
16ddd
16ddd
=23
8ccc#
8eee
16eee
16ccc#
16ccc#
16aa
16ee
16ddd
16ddd
16ddd
=24
16ccc#
16eee
16ddd
16ccc#
16ddd
16eee
16fff#
16ggg#
4aaa
=25
8.f#
16dd
4cc#
4b
=26
4.a
16aa
16gg#
16gg#
16ff#
16ff#
16ee
=27
16ee
16dd
16dd
16cc#
16cc#
16ff#
16ff#
16ee
16ee
16dd
16dd
16cc#
=28
4cc#
4b
4r
=29
4b[
8b]
16dd
16cc#
8dd
16cc#
16b
=30
4a
16r
16f#
16dd
16cc#
16dd
16b
16a
16g#
=31
4a
16r
16f#
16dd
16cc#
16dd
16b
16a
16g#
=32
4a
4A
4r
=33
2.aa[
=34
16aa]
16ee
16ee
16dd
16dd
16cc#
16cc#
16b
16b
16a
16g#
16a
=35
2.aa[
=36
16aa]
16gg
16gg
16ff#
16ff#
16ee
16ee
16dd#
16dd#
16cc
16cc
16b
=37
2.gg[
=38
16gg]
16ff#
16ff#
16ee
16ee
16dd
16dd
16cc#
16cc#
16b
16a
16gg
=39
4ff#
8r
16aa
16ff#
16ddd
16aa
16gg
16ff#
=40
4ee
8r
16ee
16cc#
16ccc#
16ee
16dd
16cc#
=41
4dd
8r
16ff#
16dd
16bb
16ff#
16ee
16dd
=42
4cc#
2ff#
=43
2.ff#
=44
2.ff#[
=45
16ff#]
16gg
16gg
16ff#
16ff#
16ee
16ee
16dd
16dd
16cc#
16cc#
16b
=46
4gg
4aa#
4r
=47
4bb
16bb
16aa#
16bb
16ccc#
16ddd
16bb
16aa#
16bb
=48
8.gg
32ff#
32ee
4dd
4cc#
=49
4b
2r
=50
4r
2bb
=51
4aa
2r
=52
4r
2aa[
=53
16aa]
16bb
16bb
16aa
16aa
16gg
16gg
16ff#
16ff#
16ee
16ee
16dd#
=54
16ee
16gg
16gg
16bb
16bb
16aa
16aa
16gg
16gg
16ff#
16ee
16ff#
=55
4ff#
4ee
4r
=56
2.aa
=57
2.aa[
=58
4.aa]
16gg
16ff#
16ee
16dd
16cc#
16dd
=59
4b
4a
8.r
16dd
=60
4b
8a
16dd
16cc#
16ff#
16dd
16cc#
16dd
=61
4g
4f#
8.r
16dd
=62
4e[
8e]
16g
16f#
8g
16f#
16e
=63
8.f#
16e
4d
4r
=64
4b[
16b]
16a
16b
16a
4b
=65
4a[
16a]
16g
16f#
16g
4a
=66
4g[
16g]
16f#
16e
16f#
4g
=67
4f#[
16f#]
16e
16d
16e
16f#
16a
16g
16f#
=68
4f#
4e
4r
=69
4aa[
16aa]
16ddd
16ccc#
16eee
16ddd
16fff#
16ff#
16aa
=70
8.gg
16ff#
2gg[
=71
4gg]
16gg
16ccc#
16ccc#
16eee
16eee
16ccc#
16aa
16gg
=72
8.ff#
16ee
2ff#[
=73
4ff#]
16ff#
16ee
16gg
16ff#
8bb
8dd
=74
4cc#
4..cc#
32dd
32ee
=75
4dd
4..dd
32ee
32ff#
=76
4ee
4..ee
32ff#
32gg
=77
16ff#
16ddd
16ddd
16aa
16aa
16ff#
16ff#
16dd
16a
16gg
16gg
16gg
=78
16ff#
16ddd
16ddd
16aa
16aa
16ff#
16ff#
16dd
16a
16gg
16gg
16gg
=79
16ff#
16aa
16gg
16ff#
16gg
16aa
16bb
16ccc#
4ddd
=80
8bb
16ggg
16eee
4ddd
4eee
=81
4ddd
2r
=82
4r
16r
16bb
16bb
16aa
16aa
16gg
16gg
16ff#
=83
4ff#
4ee
4r
=84
4ee[
8ee]
16gg
16ff#
8gg
16ff#
16ee
=85
4dd
16r
16b
16gg
16ff#
16gg
16ee
16dd
16cc#
=86
4dd
16r
16B
16g
16f#
16g
16e
16d
16c#
=87
2d
4r
==
*-
